X:4
T:Goede nacht, kameraden
Z:Bert Van Vreckem <http://flanders.blackmill.net/music/> 2005-09-20
M:C|
L:1/4
K:F
C/> C/|"F"F2 F> F|"C7"G2 G G|"F"A A "C7"G/F/ E|"F"F2 z c|
w:1.~Goe-de nacht, ka-me-ra-den, wij slui-ten de-_ze dag. De
w:2.~Goe-de nacht, ka-me-ra-den, be-waar een moe-_dig hart, En
c> A F/ A/ G/ F/ |"C7"G2 C C|"F"F F "C7"G G|"F"A3 A|
w:ster-ren on-zer la-ge lan-den, aan 't~blau-we fir-ma-ment, Die
w:ster-ren-glans in jon-ge dro-men. Want al-tijd zal de zon, Door
"Bb"d d "F"c A|F2 "C7"G2|"F"A B "C7"G G|"F"F F2|]
w:zul-len met hun glans, de som-ber-heid ver-ban-nen.
w:don-k're nach-ten heen, weer hoog aan d'he-mel ko-men.

%%scale .75
